Sources/FrostedUI/Resources/Icons.xcassets/quoteRight24.imageset/quote-right-24.svg

<svg width="24" height="24" viewBox="0 0 24 24" fill="none" xmlns="http://www.w3.org/2000/svg" data-fui-icon="true">
  <path
    d="M6.49023 5C8.94462 5.0002 10.968 6.93929 10.9795 9.375C11.1168 11.9794 10.5514 13.8444 9.46777 15.3379C8.40743 16.7992 6.89074 17.8424 5.2959 18.8789C4.94864 19.1046 4.48357 19.0064 4.25781 18.6592C4.0321 18.3119 4.13122 17.8469 4.47852 17.6211C6.08911 16.5744 7.3776 15.6648 8.25391 14.457C8.56272 14.0314 8.82563 13.5603 9.0293 13.0215C8.30505 13.5082 7.42905 13.7919 6.49023 13.792C4.02867 13.792 2 11.8412 2 9.39551C2.00018 6.95002 4.02878 5 6.49023 5ZM17.4902 5C19.9446 5.00018 21.968 6.93928 21.9795 9.375C22.1168 11.9794 21.5514 13.8444 20.4678 15.3379C19.4074 16.7992 17.8907 17.8424 16.2959 18.8789C15.9487 19.1046 15.4836 19.0063 15.2578 18.6592C15.0321 18.3119 15.1312 17.8469 15.4785 17.6211C17.089 16.5744 18.3776 15.6648 19.2539 14.457C19.5627 14.0314 19.8256 13.5603 20.0293 13.0215C19.305 13.5082 18.4291 13.7919 17.4902 13.792C15.0286 13.792 13 11.8412 13 9.39551C13.0002 6.95002 15.0287 5 17.4902 5Z"
    fill="currentColor"
  />
</svg>

<svg xmlns="http://www.w3.org/2000/svg" width="24" height="24" fill="none" data-fui-icon="true" viewBox="0 0 24 24"><path fill="currentColor" d="M6.49 5c2.455 0 4.478 1.94 4.49 4.375.137 2.604-.429 4.47-1.512 5.963-1.06 1.461-2.577 2.504-4.172 3.54a.75.75 0 1 1-.817-1.257c1.61-1.047 2.899-1.956 3.775-3.164.309-.426.572-.897.775-1.436-.724.487-1.6.77-2.539.771-2.461 0-4.49-1.95-4.49-4.396S4.029 5 6.49 5m11 0c2.455 0 4.478 1.94 4.49 4.375.137 2.604-.429 4.47-1.512 5.963-1.06 1.461-2.577 2.504-4.172 3.54a.75.75 0 0 1-.817-1.257c1.61-1.047 2.899-1.956 3.775-3.164a6 6 0 0 0 .775-1.436c-.724.487-1.6.77-2.539.771-2.461 0-4.49-1.95-4.49-4.396S15.029 5 17.49 5"/></svg>
